<?xml version="1.0" encoding="UTF-8"?>
<map version="1.10" tiledversion="1.11.2" orientation="orthogonal" renderorder="right-down" width="50" height="29" tilewidth="32" tileheight="32" infinite="0" nextlayerid="6" nextobjectid="32">
 <tileset firstgid="1" source="tilesets/tileset2a.tsx"/>
 <tileset firstgid="65" source="tilesets/tileset2b.tsx"/>
 <tileset firstgid="321" source="TX Tileset Wall.tsx"/>
 <tileset firstgid="577" source="tileset1.tsx"/>
 <tileset firstgid="2320" source="../menu/tileset2c.tsx"/>
 <layer id="1" name="Ground" width="50" height="29">
  <data encoding="csv">
1,1,1,2,3,4,1,2,3,4,1,2,3,4,1,2,3,4,1,1,1,1,1,1,1,1,1,1,1,1,1,1,2,3,4,4,1,2,3,4,1,2,3,4,1,2,13,14,15,16,
9,9,9,1,1,1,1,1,1,1,1,1,1,1,1,1,1,1,1,9,9,9,9,9,9,9,9,9,9,9,9,1,1,1,1,1,1,1,1,2,3,4,11,12,9,10,21,22,23,24,
17,17,17,9,9,9,9,9,9,9,9,9,9,9,9,9,9,9,9,17,17,17,17,17,17,17,17,17,17,17,17,9,9,9,9,9,9,9,9,10,11,12,19,20,17,18,29,30,31,32,
25,25,25,17,17,17,17,17,17,17,17,17,17,17,17,17,17,17,17,25,25,25,25,25,25,25,25,25,25,25,25,17,17,17,17,17,17,17,17,18,19,20,27,28,25,26,27,28,25,26,
1,2,3,25,25,25,25,25,25,25,25,25,25,25,25,25,25,25,25,26,27,28,3,4,1,2,3,4,1,2,3,25,25,25,25,25,25,25,25,26,27,28,3,4,1,2,3,4,1,2,
9,10,11,12,9,10,11,12,9,10,11,12,9,10,11,12,9,10,11,12,9,10,11,12,9,10,11,12,9,10,11,12,9,10,11,12,9,10,11,13,14,15,16,12,9,10,11,12,34,813,
17,18,19,20,17,18,19,20,17,18,19,20,17,18,19,20,17,18,19,20,17,18,19,20,17,18,19,20,17,18,19,20,17,18,19,20,17,18,19,21,22,23,24,20,17,18,34,34,17,813,
5,6,7,8,25,26,27,28,25,26,27,28,25,26,27,28,25,26,27,28,25,26,27,28,25,26,27,28,25,26,27,28,25,26,27,28,25,26,27,29,30,31,32,28,25,26,27,813,813,813,
13,14,15,16,1,2,3,4,1,2,3,4,1,2,3,4,1,2,3,4,1,2,3,4,1,2,3,4,1,2,3,4,1,2,3,4,1,2,3,4,1,2,3,4,1,2,3,813,813,813,
21,22,23,24,9,10,11,12,9,10,11,12,9,10,11,12,9,10,11,12,9,10,11,12,9,10,11,12,9,10,11,12,9,10,11,12,9,10,11,12,9,10,11,12,9,34,813,813,813,813,
29,30,31,32,17,18,19,20,17,10,346,20,17,18,19,20,17,18,19,20,17,18,19,20,17,18,19,20,17,18,19,20,17,18,19,20,17,18,19,20,17,18,19,20,17,18,813,813,813,813,
25,26,27,28,25,26,27,28,25,10,346,28,25,26,27,28,25,26,33,34,25,5,6,7,8,26,27,28,25,26,27,28,25,26,27,28,25,26,27,28,25,26,27,28,25,26,813,813,813,813,
1,2,3,4,1,2,3,4,1,2,346,4,1,2,3,4,1,2,41,42,1,13,14,15,16,2,3,4,1,2,3,4,1,2,3,4,1,2,3,4,1,2,3,4,1,2,34,4,813,813,
9,10,11,12,9,10,11,12,9,10,346,12,9,10,11,12,9,10,49,50,9,21,22,23,24,10,11,12,9,10,11,12,9,10,11,12,9,10,11,12,9,10,11,12,9,10,34,34,813,813,
17,18,19,20,17,18,19,20,17,18,346,20,17,18,19,20,17,18,19,20,17,29,30,31,32,18,19,20,17,18,19,20,17,18,19,20,17,18,19,20,17,18,19,20,17,18,21,34,23,813,
25,26,27,28,25,26,27,28,18,26,2380,28,25,26,27,28,25,26,27,28,25,26,27,28,25,26,27,28,25,26,27,28,25,26,27,28,25,26,27,28,25,26,27,28,25,26,29,30,31,32,
1,2,3,4,1,2,3,4,18,2,2396,4,1,2,3,4,1,2,3,4,1,2,3,4,1,2,3,4,1,2,33,34,1,2,3,4,1,2,3,4,1,2,3,4,1,2,3,4,1,2,
9,10,11,12,9,10,11,12,18,10,11,12,9,10,11,12,9,10,11,12,9,10,11,12,9,10,11,12,9,10,41,42,9,10,11,12,9,40,11,12,5,6,7,8,9,10,11,12,9,10,
17,18,19,20,17,18,19,20,17,18,19,20,17,18,19,20,17,18,19,35,36,37,38,39,17,18,19,20,17,18,49,50,17,18,19,20,17,48,19,20,17,18,19,20,17,18,19,5,6,7,
466,467,466,467,466,423,466,466,466,466,2,28,25,37,38,39,25,26,27,43,44,45,46,47,25,26,27,28,25,26,27,28,25,26,2,2,2,56,2,2,423,467,467,467,467,467,467,423,467,467,
482,483,482,483,482,439,482,482,482,482,2,4,1,45,46,47,1,2,3,51,52,53,54,55,1,2,34,35,36,2,3,4,1,2,2,2,2,2,2,2,439,483,483,483,483,483,483,439,483,483,
9,10,11,12,9,10,11,12,9,10,11,12,9,53,54,55,9,10,11,59,60,61,62,63,9,10,42,43,44,10,11,12,9,37,38,39,40,10,11,12,9,10,11,12,9,10,11,12,9,10,
17,18,19,20,17,18,19,20,17,18,19,20,17,18,19,20,17,18,19,20,17,18,19,20,17,18,50,51,52,18,19,20,17,45,46,47,48,18,19,20,17,18,19,20,17,18,19,20,17,18,
25,26,27,28,37,38,39,40,25,26,27,28,25,26,27,28,25,26,27,28,25,26,27,28,25,26,58,59,60,26,27,28,25,26,27,28,25,26,27,28,37,38,39,40,25,26,27,28,25,26,
1,2,3,4,45,46,47,48,1,2,3,4,1,2,3,4,1,2,3,4,1,2,3,4,1,2,3,4,1,2,3,4,1,2,3,4,1,2,3,4,45,46,47,48,1,2,37,38,39,40,
9,10,11,12,53,54,55,56,9,10,11,12,9,10,11,12,9,10,11,12,9,10,11,12,9,10,11,12,9,10,11,12,9,10,11,12,9,10,11,12,9,10,11,12,9,10,45,46,47,48,
418,419,420,421,420,421,418,419,420,421,152,153,418,418,418,418,418,418,418,418,418,418,419,420,421,418,419,420,421,418,419,420,421,418,419,420,421,418,419,420,421,421,418,419,420,418,419,418,419,420,
434,435,436,437,436,437,434,435,436,437,168,169,434,434,434,434,434,434,434,434,434,434,435,436,437,434,435,436,437,434,435,436,437,434,435,436,437,434,435,436,437,437,434,435,436,434,435,434,435,436,
1,2,3,4,21,22,23,24,1,2,184,185,1,2,3,4,1,2,3,4,1,2,3,4,1,2,3,4,1,2,3,4,1,2,3,4,1,2,3,4,1,2,3,4,1,13,14,15,16,2
</data>
 </layer>
 <layer id="2" name="detail layer 1" width="50" height="29">
  <data encoding="csv">
88,89,420,421,421,418,419,420,421,418,419,420,421,418,419,420,421,418,419,420,418,419,420,421,418,88,89,421,418,419,420,421,418,419,420,418,419,420,421,418,419,420,421,418,419,420,418,419,88,89,
104,105,436,437,437,434,435,436,437,434,435,436,437,434,435,436,437,434,435,436,434,435,436,437,434,104,105,437,434,435,436,437,434,435,436,434,435,436,437,434,435,436,437,434,435,436,434,435,104,105,
120,121,0,0,0,0,0,0,0,0,0,35,36,0,0,0,0,0,0,0,0,0,0,0,0,120,121,0,0,0,0,0,0,0,35,36,37,38,39,0,0,0,0,0,0,0,0,0,120,121,
0,0,0,0,0,0,0,0,0,0,0,43,44,0,0,0,0,0,0,0,0,0,0,0,0,0,0,0,0,0,0,0,0,0,43,44,45,46,47,0,0,0,0,0,0,0,0,0,0,0,
0,0,0,0,0,0,0,0,0,0,0,51,52,0,0,0,0,0,0,0,0,0,0,0,35,36,0,0,0,0,0,0,0,0,51,52,53,54,55,0,0,0,0,0,0,0,0,0,0,0,
0,0,0,0,0,0,0,0,0,0,0,59,60,0,0,0,37,38,39,40,0,0,0,0,43,44,0,0,0,0,0,0,0,0,59,60,61,62,63,0,0,0,0,0,0,0,0,0,0,0,
0,0,0,0,0,0,0,0,0,0,0,0,0,0,0,0,45,46,47,48,0,0,0,0,51,52,0,0,0,0,0,0,0,0,0,0,0,0,0,0,0,0,0,0,0,2528,2529,0,0,0,
0,0,0,0,0,0,0,0,0,0,0,0,0,0,0,0,53,54,55,56,0,0,0,0,59,60,0,0,0,0,0,0,0,0,0,0,0,0,0,0,0,0,0,0,0,2544,2545,0,0,0,
0,0,0,0,0,0,0,0,0,0,0,0,0,0,0,0,61,62,63,64,0,0,0,0,0,0,0,0,0,0,0,0,0,0,0,0,0,0,0,0,0,0,0,0,0,0,0,0,1165,0,
0,0,0,0,0,0,0,0,0,0,0,0,0,0,0,0,0,0,0,0,0,0,0,0,0,0,0,0,0,0,0,0,0,0,0,0,0,0,0,0,0,0,0,2528,2529,0,0,0,0,0,
0,0,0,0,0,0,0,0,0,0,11,0,0,0,0,0,0,0,0,0,0,0,0,0,0,0,0,0,35,36,37,38,39,40,0,0,0,0,0,0,0,0,0,2544,2545,0,0,0,0,0,
0,0,0,0,0,0,0,0,0,0,11,0,0,0,0,0,0,0,0,0,0,0,0,0,0,0,0,0,43,44,45,46,47,48,0,0,0,0,0,0,0,0,0,0,0,0,1165,0,0,0,
339,339,339,339,339,339,339,339,339,340,11,0,0,0,0,0,0,0,0,0,0,0,0,0,0,0,0,0,0,0,0,0,0,0,0,0,0,0,0,0,0,0,0,0,0,2528,2529,0,0,1165,
1928,0,0,0,0,0,0,0,0,363,11,0,0,0,0,0,0,0,0,0,0,0,0,0,0,0,0,0,0,0,0,0,0,0,0,0,0,0,0,0,0,0,0,0,0,2544,2545,0,0,0,
0,0,0,1651,0,0,0,1651,1928,347,11,0,0,0,0,0,0,0,0,0,0,0,0,0,2459,2460,2461,0,0,0,0,0,0,0,0,0,0,0,0,0,0,0,0,0,0,0,0,2528,2529,0,
1405,1406,1405,1406,1405,1406,1405,1406,18,363,11,0,0,0,0,0,0,0,0,0,0,0,0,0,2475,2476,2477,0,0,0,0,0,0,0,0,0,0,0,0,0,0,0,0,0,0,0,0,2544,2545,0,
1488,1489,1488,1489,1488,1489,1488,1489,18,379,11,0,0,0,0,0,0,0,0,0,0,0,0,2382,2491,2492,2493,2382,0,0,0,0,0,0,0,0,0,0,0,0,0,0,0,0,0,0,0,0,0,0,
1571,1572,1571,1572,1571,1572,1571,1572,18,363,11,0,0,0,0,0,0,0,0,0,0,0,0,2398,0,0,0,2398,0,0,0,0,0,0,0,0,0,0,0,338,339,339,339,339,339,339,339,339,339,339,
0,1928,0,0,0,0,1651,0,0,379,11,0,0,0,0,0,0,0,0,0,0,0,0,0,0,0,0,0,0,0,0,0,0,0,0,0,0,0,0,354,0,0,0,0,0,0,0,0,0,0,
0,0,0,0,0,0,0,0,0,372,11,0,0,0,0,0,0,0,0,0,0,0,0,0,0,0,0,0,0,0,0,0,0,0,0,0,0,0,0,370,0,0,0,0,0,0,0,0,0,0,
0,0,0,0,0,0,0,0,0,388,11,0,0,0,0,0,0,0,0,0,0,0,0,0,0,0,0,0,0,0,0,0,0,0,0,0,0,0,0,386,0,0,0,0,0,0,0,0,0,0,
0,0,0,0,0,0,0,0,0,0,0,0,0,0,0,0,0,0,0,0,0,0,0,0,0,0,0,0,0,0,0,0,0,0,0,0,0,0,0,0,0,0,0,0,0,0,0,0,0,0,
0,0,0,0,0,0,0,0,0,0,0,0,0,0,0,0,0,0,0,0,0,0,0,0,0,0,0,0,0,0,0,0,0,0,0,0,0,0,0,0,0,0,0,0,0,0,0,0,0,0,
0,0,0,0,0,0,0,0,0,0,0,0,0,0,0,0,0,0,0,0,0,0,0,0,0,0,0,0,0,0,0,0,0,0,0,0,0,0,0,0,0,0,0,0,0,0,0,0,0,0,
0,0,0,0,0,0,0,0,0,0,0,0,0,0,0,0,0,0,0,0,0,0,0,0,0,0,0,0,0,0,0,0,0,0,0,0,0,0,0,0,0,0,0,0,0,0,0,0,0,0,
0,0,0,0,0,0,0,0,0,0,0,0,0,0,0,0,0,0,0,0,0,0,0,0,0,0,0,0,0,0,0,0,0,0,0,0,0,0,0,0,0,0,0,0,0,0,0,0,0,0,
0,0,0,0,0,0,0,0,0,0,0,0,0,0,0,0,0,0,0,0,0,0,0,0,0,0,0,0,0,0,0,0,0,0,0,0,0,0,0,0,0,0,0,0,0,0,0,88,89,0,
0,0,0,0,0,0,0,0,0,0,0,0,0,0,0,0,0,0,0,0,0,0,0,0,0,0,0,0,0,0,0,0,0,0,0,0,0,0,0,0,0,0,0,0,0,0,0,104,105,0,
0,0,0,0,0,0,0,0,0,0,0,0,0,0,0,0,0,0,0,0,0,0,0,0,0,0,0,0,0,0,0,0,0,0,0,0,0,0,0,0,0,0,0,0,0,0,0,120,121,0
</data>
 </layer>
 <layer id="3" name="detail layer 2" width="50" height="29">
  <data encoding="csv">
0,0,0,0,0,0,0,0,0,0,0,0,0,0,0,0,0,0,0,0,0,0,0,0,0,0,0,0,0,0,0,0,0,0,0,0,0,0,0,0,0,0,0,0,0,0,0,0,0,0,
0,0,0,0,0,0,0,0,0,0,0,0,0,0,0,0,0,0,0,0,0,0,0,0,0,0,0,0,0,0,0,0,0,0,0,0,0,0,0,0,0,0,0,0,0,0,0,0,0,0,
0,0,0,0,0,0,0,0,0,0,0,0,0,0,0,0,0,0,0,0,0,0,0,0,0,0,0,0,0,0,0,0,0,0,0,0,0,0,0,0,0,0,0,0,0,0,0,0,0,0,
0,0,2393,0,2393,0,2393,0,2393,0,0,0,0,0,0,0,0,0,0,0,0,0,0,0,0,0,0,0,0,0,0,0,0,0,0,0,0,0,0,0,0,0,0,0,0,0,0,0,0,0,
0,0,2409,0,2409,0,2409,0,2409,0,0,0,0,0,0,0,0,0,0,0,0,0,0,0,0,0,0,0,0,0,0,0,0,0,0,0,0,0,0,0,0,0,0,0,0,0,0,0,0,0,
0,0,2425,0,2425,0,2425,0,2425,0,0,0,0,0,0,0,0,0,0,0,0,0,0,0,0,0,0,0,0,0,0,0,0,0,0,0,0,0,0,0,0,0,0,0,0,0,0,0,0,0,
0,0,2393,0,2393,0,2393,0,2393,0,0,0,0,0,0,0,0,0,0,0,0,0,0,0,0,0,0,0,0,0,0,0,0,0,0,0,0,0,0,0,0,0,0,0,0,0,0,0,0,0,
0,0,2409,0,2409,0,2409,0,2409,0,0,0,0,0,0,0,0,0,0,0,0,0,0,0,0,0,0,0,0,0,0,0,0,0,0,0,0,0,0,0,0,0,0,0,0,0,0,0,0,0,
0,0,2425,0,2425,0,2425,0,2425,0,0,0,0,0,0,0,0,0,0,0,0,0,0,0,0,0,0,0,0,0,0,0,0,0,0,0,0,0,0,0,0,0,0,0,0,0,0,0,0,0,
0,0,0,0,0,0,0,0,0,0,0,0,0,0,0,0,0,0,0,0,0,0,0,0,0,0,0,0,0,0,0,0,0,0,0,0,0,0,0,0,0,0,0,0,0,0,0,0,0,0,
0,0,0,0,0,0,0,0,0,0,2325,0,0,0,0,0,0,0,0,0,0,0,0,0,0,0,0,0,0,0,0,0,0,0,0,0,0,0,0,0,0,0,0,0,0,0,0,0,0,0,
0,0,0,0,0,0,0,0,0,0,2341,0,0,0,0,0,0,0,0,0,0,0,0,0,0,0,0,0,0,0,0,0,0,0,0,0,0,0,0,0,0,0,0,0,0,0,0,0,0,0,
0,0,0,0,0,0,0,0,0,0,2325,0,0,0,0,0,0,0,0,0,0,0,0,0,0,0,0,0,0,0,0,0,0,0,0,0,0,0,0,0,0,0,0,0,0,0,0,0,0,0,
0,0,0,0,0,0,0,0,0,0,2341,0,0,0,0,0,0,0,0,0,0,0,0,0,2333,2334,2335,0,0,0,0,0,0,0,0,0,0,0,0,0,0,0,0,0,0,0,0,0,0,0,
0,0,0,0,0,0,0,0,0,0,0,0,0,0,0,0,0,0,0,0,0,0,0,0,2349,2350,2351,0,0,0,0,0,0,0,0,0,0,0,0,0,0,0,0,0,0,0,0,0,0,0,
0,0,0,0,0,0,0,0,0,0,2380,0,0,0,0,0,0,0,0,0,0,0,0,0,2365,2366,2367,0,0,0,0,0,0,0,0,0,0,0,0,0,0,0,0,0,0,0,0,0,0,0,
0,0,0,0,0,0,0,0,0,0,2396,0,0,0,0,0,0,0,0,0,0,0,0,0,0,0,0,0,0,0,0,0,0,0,0,0,0,0,0,0,0,0,0,0,0,0,0,0,0,0,
0,0,0,0,0,0,0,0,0,0,0,0,0,0,0,0,0,0,0,0,0,0,0,0,0,0,0,0,0,0,0,0,0,0,0,0,0,0,0,0,0,0,0,0,0,0,0,0,0,0,
0,0,0,0,0,0,0,0,0,0,2325,0,0,0,0,0,0,0,0,0,0,0,0,0,0,0,0,0,0,0,0,0,0,0,0,0,0,0,0,0,0,0,0,0,0,0,0,0,0,0,
0,0,0,0,0,0,0,0,0,0,2341,0,0,0,0,0,0,0,0,0,0,0,0,0,0,0,0,0,0,0,0,0,0,0,0,0,0,0,0,0,0,0,0,0,0,0,0,0,0,0,
0,2325,0,0,0,0,0,0,2325,0,0,2411,0,0,0,0,0,0,0,0,0,0,0,0,0,0,0,0,0,0,0,0,0,0,0,0,0,0,2411,0,0,0,0,0,0,0,0,0,0,0,
0,2341,0,0,0,0,0,0,2341,0,0,2427,0,0,0,0,0,0,0,0,0,0,0,0,0,0,0,0,0,0,0,0,0,0,0,0,0,0,2427,0,0,0,0,0,0,0,0,0,0,0,
0,0,0,0,0,0,0,0,0,0,0,2443,0,0,0,0,0,0,0,0,0,0,0,0,0,0,0,0,0,0,0,0,0,0,0,0,0,0,2443,0,0,0,0,0,0,0,0,0,0,0,
0,0,0,0,0,0,0,0,0,0,0,0,0,0,0,0,0,0,0,0,0,0,0,0,0,0,0,0,0,0,0,0,0,0,0,0,0,0,0,0,0,0,0,0,0,0,0,0,0,0,
0,0,0,0,0,0,0,0,0,0,0,0,0,0,0,0,0,0,0,0,0,0,0,0,0,0,0,0,0,0,0,0,0,0,0,0,0,0,0,0,0,0,0,0,0,0,0,0,0,0,
0,0,0,0,0,0,0,0,0,0,0,0,0,0,0,0,0,0,0,0,0,0,0,0,0,0,0,0,0,0,0,0,0,0,0,0,0,0,0,0,0,0,0,0,0,0,0,0,0,0,
0,0,0,0,0,0,0,0,0,0,0,0,0,0,0,0,0,0,0,0,0,0,0,0,0,0,0,0,0,0,0,0,0,0,0,0,0,0,0,0,0,0,0,0,0,0,0,0,0,0,
0,0,0,0,0,0,0,0,0,0,0,0,0,0,0,0,0,0,0,0,0,0,0,0,0,0,0,0,0,0,0,0,0,0,0,0,0,0,0,0,0,0,0,0,0,0,0,0,0,0,
0,0,0,0,0,0,0,0,0,0,0,0,0,0,0,0,0,0,0,0,0,0,0,0,0,0,0,0,0,0,0,0,0,0,0,0,0,0,0,0,0,0,0,0,0,0,0,0,0,0
</data>
 </layer>
 <objectgroup id="4" name="unbreakables">
  <object id="2" x="9.79192" y="370.461" width="337.821" height="318.237"/>
  <object id="3" x="323.133" y="344.349" width="27.7438" height="37.5357"/>
  <object id="4" x="70.1754" y="135.455" width="212.158" height="133.823"/>
  <object id="5" x="339.453" y="664.219" width="45.6956" height="62.0155"/>
  <object id="6" x="3.26397" y="835.577" width="1607.51" height="91.3913"/>
  <object id="7" x="-4.89596" y="-8.15993" width="1597.72" height="81.5993"/>
  <object id="9" x="1538.96" y="158.303" width="58.7515" height="345.981"/>
  <object id="10" x="1465.52" y="190.942" width="62.0155" height="269.278"/>
  <object id="11" x="1382.29" y="297.022" width="89.7593" height="79.9674"/>
  <object id="12" x="1245.21" y="541.82" width="359.037" height="133.823"/>
  <object id="14" x="1215.83" y="657.691" width="31.0078" height="66.9115"/>
  <object id="15" x="1586.29" y="97.9192" width="27.7438" height="60.3835"/>
  <object id="16" x="-19.5838" y="84.8633" width="24.4798" height="814.361"/>
  <object id="17" x="866.585" y="-76.7034"/>
  <object id="18" x="1597.72" y="678.907" width="29.3758" height="172.991"/>
  <object id="20" x="771.93" y="445.532" width="94.6552" height="86.4953"/>
  <object id="21" x="866.585" y="538.556" width="32.6397" height="34.2717"/>
  <object id="22" x="736.026" y="535.292" width="37.5357" height="34.2717"/>
 </objectgroup>
 <objectgroup id="5" name="breakables">
  <object id="23" x="1057.53" y="740.922" width="27.7438" height="26.1118"/>
  <object id="24" x="1057.53" y="770.298" width="29.3758" height="29.3758"/>
  <object id="25" x="357.405" y="768.666" width="29.3758" height="31.0078"/>
  <object id="26" x="607.099" y="481.436" width="32.9009" height="30.5639"/>
  <object id="27" x="1184" y="256" width="32" height="32"/>
  <object id="28" x="1184" y="320" width="32" height="32"/>
  <object id="29" x="1184" y="416" width="32" height="32"/>
  <object id="30" x="1184" y="480" width="32" height="32"/>
 </objectgroup>
</map>
